; generated by PrusaSlicer 2.4.2+win64 on 2024-04-22 at 21:28:47 UTC


;
;
; 

; external perimeters extrusion width = 0.65mm
; perimeters extrusion width = 0.65mm
; infill extrusion width = 0.65mm
; solid infill extrusion width = 0.65mm
; top infill extrusion width = 0.60mm
; first layer extrusion width = 0.65mm

M73 P0 R188
M73 Q0 S189
M201 X1000 Y1000 Z200 E5000 ; sets maximum accelerations, mm/sec^2
M203 X200 Y200 Z12 E120 ; sets maximum feedrates, mm / sec
M204 P1250 R1250 T1250 ; sets acceleration (P, T) and retract acceleration (R), mm/sec^2
M205 X8.00 Y8.00 Z0.40 E4.50 ; sets the jerk limits, mm/sec
M205 S0 T0 ; sets the minimum extruding and travel feed rate, mm/sec
M107
;TYPE:Custom
M862.3 P "MK3" ; printer model check
M862.1 P0.6 ; nozzle diameter check
M115 U3.12.2 ; tell printer latest fw version
G90 ; use absolute coordinates
M83 ; extruder relative mode
M104 S215 ; set extruder temp
M140 S60 ; set bed temp
M190 S60 ; wait for bed temp
M109 S215 ; wait for extruder temp
G28 W ; home all without mesh bed level
G80 ; mesh bed leveling

G1 Z0.2 F720
G1 Y-3 F1000 ; go outside print area
G92 E0
G1 X60 E9 F1000 ; intro line
G1 X100 E12.5 F1000 ; intro line

G92 E0
M221 S95
G21 ; set units to millimeters
G90 ; use absolute coordinates
M83 ; use relative distances for extrusion
M900 K0.04 ; Filament gcode LA 1.5
M900 K18 ; Filament gcode LA 1.0
M107
;LAYER_CHANGE
;Z:0.2
;HEIGHT:0.2
;BEFORE_LAYER_CHANGE
G92 E0.0
;0.2


G1 E-.8 F2100
G1 Z.4 F720
;AFTER_LAYER_CHANGE
;0.2
G1 X33.785 Y24.625 F10800
G1 Z.2 F720
G1 E.8 F1500
M204 S800
;TYPE:Skirt/Brim
;WIDTH:0.65
G1 F1200
G1 X34.844 Y23.663 E.0722
G1 X36 Y23.393 E.05992
G1 X214 Y23.393 E8.98524
G1 X215.375 Y23.785 E.0722
G1 X216.337 Y24.844 E.0722
G1 X216.607 Y26 E.05992
G1 X216.607 Y184 E7.97566
G1 X216.215 Y185.375 E.0722
M73 Q0 S188
G1 X215.156 Y186.337 E.0722
G1 X214 Y186.607 E.05992
G1 X36 Y186.607 E8.98524
G1 X34.625 Y186.215 E.0722
G1 X33.663 Y185.156 E.0722
G1 X33.393 Y184 E.05992
G1 X33.393 Y26 E7.97566
G1 X33.761 Y24.711 E.06766
M204 S1000
; printing object plate_holder.stl id:0 copy 0
;WIPE_START
M73 P0 R187
G1 F8640
G1 X34.844 Y23.663 E-.34808
G1 X36 Y23.393 E-.27408
G1 X36.597 Y23.393 E-.13784
;WIPE_END
G1 E-.04 F2100
G1 Z.6 F720
G1 X132.92 Y112.92 F10800
G1 Z.2 F720
G1 E.8 F1500
M204 S800
;TYPE:Perimeter
G1 F1200
G1 X133.529 Y112.452 E.03877
G1 X134.239 Y112.158 E.03877
G1 X134.946 Y112.065 E.03599
G1 X135.752 Y112.155 E.04098
G1 X136.471 Y112.452 E.03926
G1 X137.08 Y112.92 E.03877
G1 X137.548 Y113.529 E.03877
G1 X137.842 Y114.239 E.03877
G1 X137.942 Y115 E.03877
G1 X137.842 Y115.761 E.03877
G1 X137.548 Y116.471 E.03877
G1 X137.08 Y117.08 E.03877
G1 X136.471 Y117.548 E.03877
G1 X135.761 Y117.842 E.03877
G1 X135 Y117.942 E.03877
G1 X134.239 Y117.842 E.03877
G1 X133.529 Y117.548 E.03877
G1 X132.92 Y117.08 E.03877
G1 X132.452 Y116.471 E.03877
G1 X132.158 Y115.761 E.03877
G1 X132.058 Y115 E.03877
G1 X132.158 Y114.239 E.03877
G1 X132.452 Y113.529 E.03877
G1 X132.865 Y112.991 E.03422
M204 S1000
G1 X133.353 Y113.353 F10800
M204 S800
;TYPE:External perimeter
G1 F1200
G1 X133.835 Y112.983 E.0307
G1 X134.397 Y112.75 E.0307
G1 X134.952 Y112.677 E.02825
G1 X135.6 Y112.749 E.03291
G1 X136.165 Y112.983 E.03087
G1 X136.647 Y113.353 E.0307
G1 X137.017 Y113.835 E.0307
G1 X137.25 Y114.397 E.0307
G1 X137.33 Y115 E.0307
G1 X137.25 Y115.603 E.0307
G1 X137.017 Y116.165 E.0307
G1 X136.647 Y116.647 E.0307
G1 X136.165 Y117.017 E.0307
G1 X135.603 Y117.25 E.0307
G1 X135 Y117.33 E.0307
G1 X134.397 Y117.25 E.0307
G1 X133.835 Y117.017 E.0307
G1 X133.353 Y116.647 E.0307
G1 X132.983 Y116.165 E.0307
G1 X132.75 Y115.603 E.0307
G1 X132.67 Y115 E.0307
G1 X132.75 Y114.397 E.0307
G1 X132.983 Y113.835 E.0307
G1 X133.298 Y113.424 E.02615
M204 S1000
G1 X133.197 Y112.773 F10800
;WIPE_START
G1 F8640
G1 X133.835 Y112.983 E-.16058
G1 X134.397 Y112.75 E-.14042
G1 X134.952 Y112.677 E-.12921
G1 X135.6 Y112.749 E-.15052
G1 X136.165 Y112.983 E-.14121
G1 X136.296 Y113.083 E-.03807
;WIPE_END
G1 E-.04 F2100
G1 Z.6 F720
G1 X117.942 Y115 F10800
G1 Z.2 F720
G1 E.8 F1500
M204 S800
;TYPE:Perimeter
G1 F1200
G1 X117.842 Y115.761 E.03877
G1 X117.548 Y116.471 E.03877
G1 X117.08 Y117.08 E.03877
G1 X116.471 Y117.548 E.03877
G1 X115.761 Y117.842 E.03877
G1 X115 Y117.942 E.03877
G1 X114.239 Y117.842 E.03877
G1 X113.529 Y117.548 E.03877
G1 X112.92 Y117.08 E.03877
G1 X112.452 Y116.471 E.03877
G1 X112.158 Y115.761 E.03877
G1 X112.058 Y115 E.03877
G1 X112.158 Y114.239 E.03877
G1 X112.452 Y113.529 E.03877
G1 X112.92 Y112.92 E.03877
G1 X113.529 Y112.452 E.03877
G1 X114.239 Y112.158 E.03877
G1 X114.946 Y112.065 E.03599
G1 X115.752 Y112.155 E.04098
G1 X116.471 Y112.452 E.03926
G1 X117.08 Y112.92 E.03877
G1 X117.548 Y113.529 E.03877
G1 X117.842 Y114.239 E.03877
G1 X117.93 Y114.911 E.03422
M204 S1000
G1 X117.33 Y115 F10800
M204 S800
;TYPE:External perimeter
G1 F1200
G1 X117.25 Y115.603 E.0307
G1 X117.017 Y116.165 E.0307
G1 X116.647 Y116.647 E.0307
G1 X116.165 Y117.017 E.0307
G1 X115.603 Y117.25 E.0307
G1 X115 Y117.33 E.0307
G1 X114.397 Y117.25 E.0307
G1 X113.835 Y117.017 E.0307
G1 X113.353 Y116.647 E.0307
G1 X112.983 Y116.165 E.0307
G1 X112.75 Y115.603 E.0307
G1 X112.67 Y115 E.0307
G1 X112.75 Y114.397 E.0307
G1 X112.983 Y113.835 E.0307
G1 X113.353 Y113.353 E.0307
G1 X113.835 Y112.983 E.0307
G1 X114.397 Y112.75 E.0307
G1 X114.952 Y112.677 E.02825
G1 X115.6 Y112.749 E.03291
G1 X116.165 Y112.983 E.03087
G1 X116.647 Y113.353 E.0307
G1 X117.017 Y113.835 E.0307
G1 X117.25 Y114.397 E.0307
G1 X117.318 Y114.911 E.02615
M204 S1000
G1 X117.849 Y115.3 F10800
;WIPE_START
G1 F8640
G1 X117.25 Y115.603 E-.16058
G1 X117.017 Y116.165 E-.14042
G1 X116.647 Y116.647 E-.14042
G1 X116.165 Y117.017 E-.14042
G1 X115.603 Y117.25 E-.14042
G1 X115.441 Y117.271 E-.03774
;WIPE_END
G1 E-.04 F2100
G1 Z.6 F720
G1 X115 Y97.942 F10800
G1 Z.2 F720
G1 E.8 F1500
M204 S800
;TYPE:Perimeter
G1 F1200
G1 X114.239 Y97.842 E.03877
G1 X113.529 Y97.548 E.03877
G1 X112.92 Y97.08 E.03877
G1 X112.452 Y96.471 E.03877
G1 X112.158 Y95.761 E.03877
G1 X112.058 Y95 E.03877
G1 X112.158 Y94.239 E.03877
G1 X112.452 Y93.529 E.03877
G1 X112.92 Y92.92 E.03877
G1 X113.529 Y92.452 E.03877
G1 X114.239 Y92.158 E.03877
G1 X114.946 Y92.065 E.036
G1 X115.752 Y92.155 E.04097
G1 X116.471 Y92.452 E.03926
G1 X117.088 Y92.926 E.03926
G1 X117.569 Y93.58 E.04097
G1 X117.842 Y94.239 E.036
G1 X117.942 Y95 E.03877
G1 X117.842 Y95.761 E.03877
G1 X117.548 Y96.471 E.03877
G1 X117.08 Y97.08 E.03877
G1 X116.471 Y97.548 E.03877
G1 X115.761 Y97.842 E.03877
G1 X115.089 Y97.93 E.03422
M204 S1000
G1 X115.003 Y97.329 F10800
M204 S800
;TYPE:External perimeter
G1 F1200
G1 X114.397 Y97.25 E.03084
G1 X113.835 Y97.017 E.0307
G1 X113.353 Y96.647 E.0307
G1 X112.983 Y96.165 E.0307
G1 X112.75 Y95.603 E.0307
G1 X112.67 Y95 E.0307
G1 X112.75 Y94.397 E.0307
G1 X112.983 Y93.835 E.0307
G1 X113.353 Y93.353 E.0307
G1 X113.835 Y92.983 E.0307
G1 X114.397 Y92.75 E.0307
G1 X114.952 Y92.677 E.02825
G1 X115.6 Y92.749 E.0329
G1 X116.165 Y92.983 E.03087
G1 X116.65 Y93.355 E.03087
G1 X117.036 Y93.88 E.0329
G1 X117.25 Y94.397 E.02825
G1 X117.33 Y95 E.0307
G1 X117.25 Y95.603 E.0307
G1 X117.017 Y96.165 E.0307
G1 X116.647 Y96.647 E.0307
G1 X116.165 Y97.017 E.0307
G1 X115.603 Y97.25 E.0307
G1 X115.092 Y97.317 E.02601
M204 S1000
G1 X114.703 Y97.849 F10800
;WIPE_START
G1 F8640
G1 X114.397 Y97.25 E-.16124
G1 X113.835 Y97.017 E-.14042
G1 X113.353 Y96.647 E-.14042
G1 X112.983 Y96.165 E-.14042
G1 X112.75 Y95.603 E-.14042
G1 X112.729 Y95.444 E-.03708
;WIPE_END
G1 E-.04 F2100
G1 Z.6 F720
G1 X132.058 Y95 F10800
G1 Z.2 F720
G1 E.8 F1500
M204 S800
;TYPE:Perimeter
G1 F1200
G1 X132.158 Y94.239 E.03877
G1 X132.452 Y93.529 E.03877
G1 X132.92 Y92.92 E.03877
G1 X133.529 Y92.452 E.03877
G1 X134.239 Y92.158 E.03877
G1 X134.946 Y92.065 E.036
G1 X135.752 Y92.155 E.04097
G1 X136.471 Y92.452 E.03926
G1 X137.088 Y92.926 E.03926
G1 X137.569 Y93.58 E.04097
G1 X137.842 Y94.239 E.036
G1 X137.942 Y95 E.03877
G1 X137.842 Y95.761 E.03877
G1 X137.548 Y96.471 E.03877
G1 X137.08 Y97.08 E.03877
G1 X136.471 Y97.548 E.03877
G1 X135.761 Y97.842 E.03877
G1 X135 Y97.942 E.03877
G1 X134.239 Y97.842 E.03877
G1 X133.529 Y97.548 E.03877
G1 X132.92 Y97.08 E.03877
G1 X132.452 Y96.471 E.03877
G1 X132.158 Y95.761 E.03877
G1 X132.07 Y95.089 E.03422
M204 S1000
G1 X132.671 Y95.003 F10800
M204 S800
;TYPE:External perimeter
G1 F1200
G1 X132.75 Y94.397 E.03084
G1 X132.983 Y93.835 E.0307
G1 X133.353 Y93.353 E.0307
G1 X133.835 Y92.983 E.0307
G1 X134.397 Y92.75 E.0307
G1 X134.952 Y92.677 E.02825
G1 X135.6 Y92.749 E.0329
G1 X136.165 Y92.983 E.03087
G1 X136.65 Y93.355 E.03087
G1 X137.036 Y93.88 E.0329
G1 X137.25 Y94.397 E.02825
G1 X137.33 Y95 E.0307
G1 X137.25 Y95.603 E.0307
G1 X137.017 Y96.165 E.0307
G1 X136.647 Y96.647 E.0307
G1 X136.165 Y97.017 E.0307
G1 X135.603 Y97.25 E.0307
G1 X135 Y97.33 E.0307
G1 X134.397 Y97.25 E.0307
G1 X133.835 Y97.017 E.0307
G1 X133.353 Y96.647 E.0307
G1 X132.983 Y96.165 E.0307
G1 X132.75 Y95.603 E.0307
G1 X132.683 Y95.092 E.02601
M204 S1000
G1 X132.151 Y94.703 F10800
;WIPE_START
G1 F8640
G1 X132.75 Y94.397 E-.16123
G1 X132.983 Y93.835 E-.14042
G1 X133.353 Y93.353 E-.14042
G1 X133.835 Y92.983 E-.14042
G1 X134.397 Y92.75 E-.14042
G1 X134.556 Y92.729 E-.03709
;WIPE_END
G1 E-.04 F2100
G1 Z.6 F720
G1 X135.002 Y76.254 F10800
G1 Z.2 F720
G1 E.8 F1500
M204 S800
;TYPE:Perimeter
G1 F1200
G1 X134.425 Y76.397 E.03001
G1 X134.035 Y76.425 E.01976
G1 X115.965 Y76.425 E.91213
G1 X115.585 Y76.398 E.01923
G1 X115.189 Y76.315 E.02043
G1 X114.907 Y76.223 E.01499
G1 X114.539 Y76.056 E.02039
G1 X114.185 Y75.841 E.02092
G1 X113.857 Y75.586 E.02097
G1 X113.557 Y75.296 E.02107
G1 X113.285 Y74.975 E.02123
G1 X113.041 Y74.628 E.02142
G1 X112.825 Y74.257 E.02166
G1 X112.638 Y73.866 E.0219
G1 X112.48 Y73.457 E.02214
G1 X112.35 Y73.033 E.02237
G1 X112.248 Y72.598 E.02256
G1 X112.176 Y72.153 E.02272
G1 X112.132 Y71.703 E.02283
G1 X112.117 Y71.25 E.02289
G1 X112.132 Y70.797 E.02289
G1 X112.176 Y70.347 E.02283
G1 X112.248 Y69.902 E.02273
G1 X112.35 Y69.467 E.02257
G1 X112.48 Y69.043 E.02237
G1 X112.638 Y68.634 E.02214
G1 X112.825 Y68.243 E.0219
G1 X113.041 Y67.872 E.02165
G1 X113.285 Y67.525 E.02142
G1 X113.557 Y67.204 E.02123
G1 X113.857 Y66.914 E.02107
G1 X114.185 Y66.659 E.02097
G1 X114.539 Y66.444 E.02091
G1 X114.916 Y66.273 E.02091
G1 X115.303 Y66.156 E.0204
G1 X115.596 Y66.101 E.01503
G1 X115.965 Y66.075 E.0187
G1 X134.035 Y66.075 E.91213
G1 X134.415 Y66.102 E.01923
G1 X134.821 Y66.187 E.02095
G1 X135.221 Y66.328 E.02141
G1 X135.692 Y66.577 E.02691
G1 X136.043 Y66.83 E.02183
G1 X136.438 Y67.198 E.02724
G1 X136.72 Y67.53 E.02198
G1 X137.031 Y67.987 E.02792
G1 X137.243 Y68.377 E.02238
G1 X137.469 Y68.9 E.02876
G1 X137.612 Y69.329 E.02286
G1 X137.751 Y69.897 E.02951
G1 X137.825 Y70.352 E.02325
G1 X137.876 Y70.948 E.0302
G1 X137.876 Y71.552 E.03053
G1 X137.825 Y72.154 E.03046
G1 X137.723 Y72.739 E.03
G1 X137.607 Y73.187 E.02333
G1 X137.365 Y73.861 E.03619
G1 X137.106 Y74.384 E.02943
G1 X136.8 Y74.863 E.02872
G1 X136.438 Y75.303 E.02876
G1 X135.934 Y75.757 E.03422
G1 X135.461 Y76.058 E.02831
G1 X135.085 Y76.218 E.02065
M204 S1000
G1 X134.764 Y75.695 F10800
M204 S800
;TYPE:External perimeter
G1 F1200
G1 X134.335 Y75.795 E.02223
G1 X134.014 Y75.817 E.01625
G1 X115.986 Y75.817 E.90999
G1 X115.669 Y75.795 E.01607
G1 X115.346 Y75.728 E.01663
G1 X115.127 Y75.656 E.01164
G1 X114.823 Y75.518 E.01687
G1 X114.53 Y75.34 E.01728
G1 X114.256 Y75.126 E.01758
G1 X114 Y74.88 E.01792
G1 X113.766 Y74.603 E.0183
G1 X113.553 Y74.3 E.0187
G1 X113.363 Y73.973 E.01911
G1 X113.196 Y73.624 E.0195
G1 X113.054 Y73.257 E.01987
G1 X112.936 Y72.875 E.0202
G1 X112.844 Y72.48 E.02048
G1 X112.778 Y72.075 E.0207
G1 X112.738 Y71.664 E.02084
G1 X112.725 Y71.25 E.02092
G1 X112.738 Y70.836 E.02092
G1 X112.778 Y70.425 E.02084
G1 X112.844 Y70.02 E.0207
G1 X112.936 Y69.625 E.02048
G1 X113.054 Y69.243 E.0202
G1 X113.196 Y68.876 E.01987
G1 X113.363 Y68.527 E.0195
G1 X113.553 Y68.2 E.01911
G1 X113.766 Y67.897 E.0187
G1 X114 Y67.62 E.0183
G1 X114.256 Y67.374 E.01792
G1 X114.53 Y67.16 E.01758
G1 X114.823 Y66.982 E.01728
G1 X115.131 Y66.843 E.01705
G1 X115.447 Y66.746 E.0167
G1 X115.673 Y66.704 E.01157
G1 X115.986 Y66.683 E.01588
G1 X134.014 Y66.683 E.90999
G1 X134.331 Y66.705 E.01607
G1 X134.657 Y66.773 E.01681
G1 X134.977 Y66.886 E.0171
G1 X135.371 Y67.094 E.02254
G1 X135.657 Y67.3 E.01778
G1 X135.998 Y67.618 E.02352
G1 X136.236 Y67.898 E.01856
G1 X136.512 Y68.304 E.02478
G1 X136.697 Y68.643 E.01947
G1 X136.901 Y69.116 E.02604
G1 X137.028 Y69.498 E.02029
G1 X137.156 Y70.018 E.02706
G1 X137.222 Y70.427 E.02088
G1 X137.269 Y70.974 E.02772
G1 X137.269 Y71.526 E.0279
G1 X137.222 Y72.075 E.02781
G1 X137.129 Y72.611 E.02745
G1 X137.027 Y73.008 E.02068
G1 X136.805 Y73.623 E.03301
G1 X136.577 Y74.085 E.02601
G1 X136.308 Y74.506 E.0252
G1 X135.998 Y74.882 E.02463
G1 X135.566 Y75.272 E.02937
G1 X135.177 Y75.519 E.02325
G1 X134.847 Y75.66 E.01815
M204 S1000
G1 X134.672 Y76.126 F10800
;WIPE_START
G1 F8640
G1 X134.335 Y75.795 E-.12221
G1 X134.014 Y75.817 E-.07433
G1 X131.573 Y75.817 E-.56345
;WIPE_END
G1 E-.04 F2100
G1 Z.6 F720
G1 X122.515 Y65.015 F10800
G1 Z.2 F720
G1 E.8 F1500
M204 S800
;TYPE:Perimeter
G1 F1200
G1 X122.071 Y65.355 E.02822
G1 X121.6 Y65.55 E.02572
G1 X121.013 Y65.644 E.03003
G1 X120.446 Y65.569 E.02888
G1 X119.929 Y65.355 E.02822
G1 X119.485 Y65.015 E.02822
G1 X119.145 Y64.571 E.02823
G1 X118.931 Y64.054 E.02822
G1 X118.868 Y63.574 E.02445
G1 X118.868 Y60.426 E.15893
G1 X118.931 Y59.946 E.02445
G1 X119.145 Y59.429 E.02822
G1 X119.485 Y58.985 E.02822
G1 X119.929 Y58.645 E.02822
G1 X120.446 Y58.431 E.02823
G1 X120.951 Y58.365 E.02572
G1 X121.542 Y58.426 E.03003
G1 X122.071 Y58.645 E.02888
G1 X122.515 Y58.985 E.02822
G1 X122.855 Y59.429 E.02822
G1 X123.069 Y59.946 E.02822
G1 X123.132 Y60.426 E.02445
G1 X123.132 Y63.574 E.15893
G1 X123.069 Y64.054 E.02445
G1 X122.855 Y64.571 E.02822
G1 X122.569 Y64.943 E.02368
M204 S1000
G1 X122.082 Y64.582 F10800
M204 S800
;TYPE:External perimeter
G1 F1200
G1 X121.765 Y64.825 E.02016
G1 X121.434 Y64.962 E.01807
G1 X121.004 Y65.03 E.02196
G1 X120.604 Y64.977 E.02038
G1 X120.235 Y64.825 E.02016
G1 X119.918 Y64.582 E.02016
G1 X119.675 Y64.265 E.02016
G1 X119.523 Y63.896 E.02016
G1 X119.475 Y63.534 E.0184
G1 X119.475 Y60.466 E.15491
G1 X119.523 Y60.104 E.0184
G1 X119.675 Y59.735 E.02016
G1 X119.918 Y59.418 E.02016
G1 X120.235 Y59.175 E.02016
G1 X120.604 Y59.023 E.02016
G1 X120.959 Y58.976 E.01807
G1 X121.392 Y59.021 E.02196
G1 X121.765 Y59.175 E.02038
G1 X122.082 Y59.418 E.02016
G1 X122.325 Y59.735 E.02016
G1 X122.477 Y60.104 E.02016
G1 X122.525 Y60.466 E.0184
G1 X122.525 Y63.534 E.15491
G1 X122.477 Y63.896 E.0184
G1 X122.325 Y64.265 E.02016
G1 X122.136 Y64.51 E.01561
M204 S1000
G1 X122.185 Y64.967 F10800
;WIPE_START
G1 F8640
G1 X121.765 Y64.825 E-.1124
G1 X121.434 Y64.962 E-.08267
G1 X121.004 Y65.03 E-.10043
G1 X120.604 Y64.977 E-.09324
G1 X120.235 Y64.825 E-.0922
G1 X119.918 Y64.582 E-.0922
G1 X119.675 Y64.265 E-.0922
G1 X119.523 Y63.896 E-.0922
G1 X119.521 Y63.885 E-.00248
;WIPE_END
G1 E-.04 F2100
G1 Z.6 F720
G1 X126.931 Y64.054 F10800
G1 Z.2 F720
G1 E.8 F1500
M204 S800
;TYPE:Perimeter
G1 F1200
G1 X126.868 Y63.574 E.02445
G1 X126.868 Y60.426 E.15893
G1 X126.931 Y59.946 E.02445
G1 X127.145 Y59.429 E.02822
G1 X127.485 Y58.985 E.02822
G1 X127.929 Y58.645 E.02822
G1 X128.446 Y58.431 E.02823
G1 X128.951 Y58.365 E.02572
G1 X129.542 Y58.426 E.03003
G1 X130.071 Y58.645 E.02888
G1 X130.515 Y58.985 E.02822
G1 X130.855 Y59.429 E.02822
G1 X131.069 Y59.946 E.02822
G1 X131.132 Y60.426 E.02445
G1 X131.132 Y63.574 E.15893
G1 X131.069 Y64.054 E.02445
G1 X130.855 Y64.571 E.02822
G1 X130.515 Y65.015 E.02822
G1 X130.071 Y65.355 E.02822
G1 X129.6 Y65.55 E.02572
G1 X129.013 Y65.644 E.03003
G1 X128.446 Y65.569 E.02888
G1 X127.929 Y65.355 E.02822
G1 X127.485 Y65.015 E.02822
G1 X127.145 Y64.571 E.02823
G1 X126.966 Y64.137 E.02368
M204 S1000
G1 X127.523 Y63.896 F10800
M204 S800
;TYPE:External perimeter
G1 F1200
G1 X127.475 Y63.534 E.0184
G1 X127.475 Y60.466 E.15491
G1 X127.523 Y60.104 E.0184
